X: 16409
T: Gypsy Princess
R: barndance
M: 4/4
K: Gmajor
(B2 B)B B2B2|ABAG E2 DE|G2 GB d2 dd|dedB A2 GA|
(B2 B)B B2B2|ABAG E2 DE|G2 GB d2 dB|A2 G2 G2 GA:|
(d2 d)d d2 d2|ABBA GABd|(e2e)e e2 e2|ABBA GABc|
(d2 d)d d2 d2|ABBA GABd|g2 ge dBAc|B2 G2 G2 GA:|

